common/svg/tokens-icon.svg

<svg fill="none" height="20" viewBox="0 0 20 20" width="20" xmlns="http://www.w3.org/2000/svg"><circle cx="13.5" cy="10" r="5.625" stroke="#000" stroke-width="1.75"/><path d="m16.1315 10.0001c0-1.45339-1.1781-2.63157-2.6315-2.63157" stroke="#000" stroke-width="1.5"/><path clip-rule="evenodd" d="m8.59438 14.2645c-.63178.3109-1.34269.4855-2.09438.4855-2.62335 0-4.75-2.1266-4.75-4.75 0-2.62335 2.12665-4.75 4.75-4.75.75169 0 1.4626.17461 2.09438.48548.40742-.46827.88078-.87764 1.40562-1.21366-1.0103-.64682-2.21136-1.02182-3.5-1.02182-3.58985 0-6.5 2.91015-6.5 6.5 0 3.5899 2.91015 6.5 6.5 6.5 1.28864 0 2.4897-.375 3.5-1.0218-.52484-.336-.9982-.7454-1.40562-1.2137z" fill="#000" fill-rule="evenodd"/></svg>

<svg width="20" height="20" viewBox="0 0 20 20" fill="none" xmlns="http://www.w3.org/2000/svg">
<circle cx="13.5" cy="10" r="5.625" stroke="black" stroke-width="1.75"/>
<path d="M16.1315 10.0001C16.1315 8.54671 14.9534 7.36853 13.5 7.36853" stroke="black" stroke-width="1.5"/>
<path fill-rule="evenodd" clip-rule="evenodd" d="M8.59438 14.2645C7.9626 14.5754 7.25169 14.75 6.5 14.75C3.87665 14.75 1.75 12.6234 1.75 10C1.75 7.37665 3.87665 5.25 6.5 5.25C7.25169 5.25 7.9626 5.42461 8.59438 5.73548C9.0018 5.26721 9.47516 4.85784 10 4.52182C8.9897 3.875 7.78864 3.5 6.5 3.5C2.91015 3.5 0 6.41015 0 10C0 13.5899 2.91015 16.5 6.5 16.5C7.78864 16.5 8.9897 16.125 10 15.4782C9.47516 15.1422 9.0018 14.7328 8.59438 14.2645Z" fill="black"/>
</svg>
